packages/blockchain-info-components/src/Images/img/swap-loading.svg

<svg fill="none" height="87" viewBox="0 0 88 87" width="88" xmlns="http://www.w3.org/2000/svg" xmlns:xlink="http://www.w3.org/1999/xlink"><clipPath id="a"><path d="m48 0h40v40h-40z"/></clipPath><clipPath id="b"><path d="m48 0h40v40h-40z"/></clipPath><circle cx="36" cy="51" fill="#0c6cf2" r="36"/><path d="m29.1114 35.6149c-.8786-.8787-2.3033-.8787-3.1819 0l-13.7939 13.7939c-.8787.8787-.8787 2.3033 0 3.182l13.7939 13.7939c.8786.8786 2.3033.8786 3.1819 0l1.066-1.066c.8787-.8787.8787-2.3033 0-3.182l-8.1376-8.1375h27.9207l-8.1375 8.1375c-.8787.8787-.8787 2.3033 0 3.182l1.066 1.0661c.8787.8787 2.3034.8787 3.182 0l13.7939-13.7939c.8787-.8787.8787-2.3033 0-3.182l-13.7939-13.7938c-.8786-.8787-2.3033-.8787-3.1819 0l-1.066 1.0659c-.8787.8787-.8787 2.3033 0 3.182l8.1287 8.1287h-27.903l8.1287-8.1287c.8787-.8787.8787-2.3033 0-3.182z" fill="#fff"/><g clip-path="url(#a)"><circle cx="68" cy="20" fill="#fff" r="20"/><path clip-rule="evenodd" d="m68 36c8.8366 0 16-7.1634 16-16s-7.1634-16-16-16-16 7.1634-16 16 7.1634 16 16 16zm-9.7909-15.1242 2.8285-2.8284 4 4 10.5049-10.5049 2.8284 2.8284-13.3333 13.3333z" fill="#17cf73" fill-rule="evenodd"/><g clip-path="url(#b)"><circle cx="68" cy="20" fill="#fff" r="20"/><g fill="#0c6cf2"><path clip-rule="evenodd" d="m68 8.75c-6.2132 0-11.25 5.0368-11.25 11.25s5.0368 11.25 11.25 11.25 11.25-5.0368 11.25-11.25-5.0368-11.25-11.25-11.25zm-16.25 11.25c0-8.9746 7.2754-16.25 16.25-16.25s16.25 7.2754 16.25 16.25-7.2754 16.25-16.25 16.25-16.25-7.2754-16.25-16.25z" fill-rule="evenodd" opacity=".3"/><path d="m65.088 9.13333c-6.0014 1.60807-9.563 7.77687-7.9549 13.77837.5885 2.1965 1.788 4.0662 3.3666 5.4752l-3.2994 3.7577c-2.297-2.0387-4.0425-4.7503-4.8968-7.9388-2.3228-8.6688 2.8216-17.5793 11.4905-19.9021z"/></g></g></g></svg>

<svg width="88" height="87" viewBox="0 0 88 87" fill="none" xmlns="http://www.w3.org/2000/svg">
<circle cx="36" cy="51" r="36" fill="#0C6CF2"/>
<path d="M29.1114 35.6149C28.2328 34.7362 26.8081 34.7362 25.9295 35.6149L12.1356 49.4088C11.2569 50.2875 11.2569 51.7121 12.1356 52.5908L25.9295 66.3847C26.8081 67.2633 28.2328 67.2633 29.1114 66.3847L30.1774 65.3187C31.0561 64.44 31.0561 63.0154 30.1774 62.1367L22.0398 53.9992H49.9605L41.823 62.1367C40.9443 63.0154 40.9443 64.44 41.823 65.3187L42.889 66.3848C43.7677 67.2635 45.1924 67.2635 46.071 66.3848L59.8649 52.5909C60.7436 51.7122 60.7436 50.2876 59.8649 49.4089L46.071 35.6151C45.1924 34.7364 43.7677 34.7364 42.8891 35.6151L41.8231 36.681C40.9444 37.5597 40.9444 38.9843 41.8231 39.863L49.9518 47.9917H22.0488L30.1775 39.863C31.0562 38.9843 31.0562 37.5597 30.1775 36.681L29.1114 35.6149Z" fill="white"/>
<g clip-path="url(#clip0_502_40223)">
<circle cx="68" cy="20" r="20" fill="white"/>
<path fill-rule="evenodd" clip-rule="evenodd" d="M68 36C76.8366 36 84 28.8366 84 20C84 11.1634 76.8366 4 68 4C59.1634 4 52 11.1634 52 20C52 28.8366 59.1634 36 68 36ZM58.2091 20.8758L61.0376 18.0474L65.0376 22.0474L75.5425 11.5425L78.3709 14.3709L65.0376 27.7042L58.2091 20.8758Z" fill="#17CF73"/>
<g clip-path="url(#clip1_502_40223)">
<circle cx="68" cy="20" r="20" fill="white"/>
<path opacity="0.3" fill-rule="evenodd" clip-rule="evenodd" d="M68 8.75C61.7868 8.75 56.75 13.7868 56.75 20C56.75 26.2132 61.7868 31.25 68 31.25C74.2132 31.25 79.25 26.2132 79.25 20C79.25 13.7868 74.2132 8.75 68 8.75ZM51.75 20C51.75 11.0254 59.0254 3.75 68 3.75C76.9746 3.75 84.25 11.0254 84.25 20C84.25 28.9746 76.9746 36.25 68 36.25C59.0254 36.25 51.75 28.9746 51.75 20Z" fill="#0C6CF2"/>
<path d="M65.088 9.13333C59.0866 10.7414 55.525 16.9102 57.1331 22.9117C57.7216 25.1082 58.9211 26.9779 60.4997 28.3869L57.2003 32.1446C54.9033 30.1059 53.1578 27.3943 52.3035 24.2058C49.9807 15.537 55.1251 6.6265 63.794 4.3037L65.088 9.13333Z" fill="#0C6CF2"/>
</g>
</g>
<defs>
<clipPath id="clip0_502_40223">
<rect width="40" height="40" fill="white" transform="translate(48)"/>
</clipPath>
<clipPath id="clip1_502_40223">
<rect width="40" height="40" fill="white" transform="translate(48)"/>
</clipPath>
</defs>
</svg>
